X:88
T:Scotch Reel
O:No 88 Wm Clarke Feltwell  MS
I:abc2nwc
M:2/2
L:1/8
K:G
D|DGGB AG g2|dBc/2B/2A/2G/2 AFFD|DGGB AG g2|dBd/2c/2B/2A/2 G2G2:|
|:g3/2a/2g3/2e/2 dBBg|dBBB GAE E2|g3/2a/2g3/2e/2 dBdg|abab g2ga|
bgBb afAa|gdBG AE E2|DGGB AG g2|dBd/2c/2B/2A/2 G2G2|]

